src/assets/protocols/roots.svg

<svg xmlns="http://www.w3.org/2000/svg" fill="none" viewBox="0 0 3478 1080"><g clip-path="url(#a)"><path fill="#2C2C2C" d="M1227.74 802V343h77.4v87.3c35.1-59.4 92.7-94.5 164.7-94.5h14.4v80.1h-14.4c-102.6 0-164.7 61.2-164.7 155.7V802zm501.86 10.8c-139.5 0-244.8-103.5-244.8-240.3s105.3-240.3 244.8-240.3c138.6 0 243.9 103.5 243.9 240.3s-105.3 240.3-243.9 240.3m0-74.7c93.6 0 163.8-71.1 163.8-165.6s-70.2-165.6-163.8-165.6c-94.5 0-164.7 71.1-164.7 165.6s70.2 165.6 164.7 165.6m533.75 74.7c-139.5 0-244.8-103.5-244.8-240.3s105.3-240.3 244.8-240.3c138.6 0 243.9 103.5 243.9 240.3s-105.3 240.3-243.9 240.3m0-74.7c93.6 0 163.8-71.1 163.8-165.6s-70.2-165.6-163.8-165.6c-94.5 0-164.7 71.1-164.7 165.6s70.2 165.6 164.7 165.6m485.77 63.9c-92.7 0-144.9-49.5-144.9-135V413.2h-83.7V343h54c21.6 0 33.3-11.7 33.3-34.2v-92.7h73.8V343h123.3v70.2h-123.3v241.2c0 46.8 29.7 76.5 78.3 76.5h45V802zm275.13 10.8c-107.1 0-177.3-56.7-177.3-141.3h79.2c0 43.2 39.6 71.1 99 71.1 55.8 0 92.7-26.1 92.7-63 0-99-263.7-46.8-263.7-208.8 0-83.7 66.6-138.6 166.5-138.6 102.6 0 169.2 54 169.2 135.9h-79.2c0-39.6-36-65.7-90.9-65.7-52.2 0-86.4 24.3-86.4 59.4 0 96.3 263.7 45 263.7 209.7 0 84.6-68.4 141.3-172.8 141.3"/><path fill="#111" fill-rule="evenodd" d="M718.4 136.067c-77.301-69.423-194.499-69.423-271.8 0L147.9 404.321c-101.44 91.101-81.617 238.566 9.248 311.305l289.98-260.424c77.302-69.422 194.499-69.422 271.801 0l289.481 259.975c90.39-72.894 109.92-219.942 8.69-310.856z" clip-rule="evenodd"/><path fill="#313131" fill-rule="evenodd" d="M446.6 975.736c77.302 69.424 194.499 69.424 271.801 0L1017.1 707.482c75.2-67.535 83.76-166.045 46.14-242.125-10.99 21.645-26.41 42.086-46.67 60.278L717.872 793.89c-77.301 69.422-194.499 69.422-271.8 0l-298.7-268.255c-19.928-17.897-35.176-37.969-46.125-59.222-37.024 75.933-28.2 173.846 46.654 241.069z" clip-rule="evenodd"/></g><defs><clipPath id="a"><path fill="#fff" d="M0 0h3478v1080H0z"/></clipPath></defs></svg>

<svg width="3478" height="1080" viewBox="0 0 3478 1080" fill="none" xmlns="http://www.w3.org/2000/svg">
<g clip-path="url(#clip0_1_2)">
<path d="M1227.74 802V343H1305.14V430.3C1340.24 370.9 1397.84 335.8 1469.84 335.8H1484.24V415.9H1469.84C1367.24 415.9 1305.14 477.1 1305.14 571.6V802H1227.74ZM1729.6 812.8C1590.1 812.8 1484.8 709.3 1484.8 572.5C1484.8 435.7 1590.1 332.2 1729.6 332.2C1868.2 332.2 1973.5 435.7 1973.5 572.5C1973.5 709.3 1868.2 812.8 1729.6 812.8ZM1729.6 738.1C1823.2 738.1 1893.4 667 1893.4 572.5C1893.4 478 1823.2 406.9 1729.6 406.9C1635.1 406.9 1564.9 478 1564.9 572.5C1564.9 667 1635.1 738.1 1729.6 738.1ZM2263.35 812.8C2123.85 812.8 2018.55 709.3 2018.55 572.5C2018.55 435.7 2123.85 332.2 2263.35 332.2C2401.95 332.2 2507.25 435.7 2507.25 572.5C2507.25 709.3 2401.95 812.8 2263.35 812.8ZM2263.35 738.1C2356.95 738.1 2427.15 667 2427.15 572.5C2427.15 478 2356.95 406.9 2263.35 406.9C2168.85 406.9 2098.65 478 2098.65 572.5C2098.65 667 2168.85 738.1 2263.35 738.1ZM2749.12 802C2656.42 802 2604.22 752.5 2604.22 667V413.2H2520.52V343H2574.52C2596.12 343 2607.82 331.3 2607.82 308.8V216.1H2681.62V343H2804.92V413.2H2681.62V654.4C2681.62 701.2 2711.32 730.9 2759.92 730.9H2804.92V802H2749.12ZM3024.25 812.8C2917.15 812.8 2846.95 756.1 2846.95 671.5H2926.15C2926.15 714.7 2965.75 742.6 3025.15 742.6C3080.95 742.6 3117.85 716.5 3117.85 679.6C3117.85 580.6 2854.15 632.8 2854.15 470.8C2854.15 387.1 2920.75 332.2 3020.65 332.2C3123.25 332.2 3189.85 386.2 3189.85 468.1H3110.65C3110.65 428.5 3074.65 402.4 3019.75 402.4C2967.55 402.4 2933.35 426.7 2933.35 461.8C2933.35 558.1 3197.05 506.8 3197.05 671.5C3197.05 756.1 3128.65 812.8 3024.25 812.8Z" fill="#2C2C2C"/>
<path fill-rule="evenodd" clip-rule="evenodd" d="M718.4 136.067C641.099 66.6444 523.901 66.6444 446.6 136.067L147.9 404.321C46.4592 495.422 66.2831 642.887 157.148 715.626L447.128 455.202C524.43 385.78 641.627 385.78 718.929 455.202L1008.41 715.177C1098.8 642.283 1118.33 495.235 1017.1 404.321L718.4 136.067Z" fill="#111111"/>
<path fill-rule="evenodd" clip-rule="evenodd" d="M446.6 975.736C523.902 1045.16 641.099 1045.16 718.401 975.736L1017.1 707.482C1092.3 639.947 1100.86 541.437 1063.24 465.357C1052.25 487.002 1036.83 507.443 1016.57 525.635L717.872 793.89C640.571 863.312 523.373 863.312 446.072 793.89L147.372 525.635C127.444 507.738 112.196 487.666 101.247 466.413C64.2228 542.346 73.0478 640.259 147.901 707.482L446.6 975.736Z" fill="#313131"/>
</g>
<defs>
<clipPath id="clip0_1_2">
<rect width="3478" height="1080" fill="white"/>
</clipPath>
</defs>
</svg>
